X: 45
T:Irish Trot
M:C|
L:1/8
Q:180
K:EAeol
efgf e2B2|defe d2cd|eedc B2d2|G2A2 B4|Bcde dBG2|FGAB AFD2|EFGA B2e2|defg
 e4||

